static/img/kroki/52b0edf9ba63e18002c4c51b08cac1e9.svg

<?xml version="1.0" encoding="us-ascii" standalone="no"?><svg xmlns="http://www.w3.org/2000/svg" xmlns:xlink="http://www.w3.org/1999/xlink" contentStyleType="text/css" height="573px" preserveAspectRatio="none" style="width:365px;height:573px;" version="1.1" viewBox="0 0 365 573" width="365px" zoomAndPan="magnify"><defs/><g><!--class azure_location--><g id="elem_azure_location"><rect codeLine="23" fill="#3D176E" height="39.7891" id="azure_location" rx="2.5" ry="2.5" style="stroke:#000D19;stroke-width:0.5;" width="163" x="86.5" y="528.16"/><ellipse cx="101.5" cy="548.0545" fill="#ADD1B2" rx="11" ry="11" style="stroke:#181818;stroke-width:1.0;"/><path d="M104.4688,553.6952 Q103.8906,553.992 103.25,554.1327 Q102.6094,554.2889 101.9063,554.2889 Q99.4063,554.2889 98.0781,552.6483 Q96.7656,550.992 96.7656,547.867 Q96.7656,544.742 98.0781,543.0858 Q99.4063,541.4295 101.9063,541.4295 Q102.6094,541.4295 103.25,541.5858 Q103.9063,541.742 104.4688,542.0389 L104.4688,544.7577 Q103.8438,544.1795 103.25,543.9139 Q102.6563,543.6327 102.0313,543.6327 Q100.6875,543.6327 100,544.7108 Q99.3125,545.7733 99.3125,547.867 Q99.3125,549.9608 100,551.0389 Q100.6875,552.1014 102.0313,552.1014 Q102.6563,552.1014 103.25,551.8358 Q103.8438,551.5545 104.4688,550.9764 L104.4688,553.6952 Z " fill="#000000"/><text fill="#D9B8FF" font-family="Helvetica" font-size="17" lengthAdjust="spacing" textLength="121" x="120.5" y="553.9398">azure_location</text></g><!--class microsoft_resource--><g id="elem_microsoft_resource"><rect codeLine="26" fill="#3D176E" height="39.7891" id="microsoft_resource" rx="2.5" ry="2.5" style="stroke:#000D19;stroke-width:0.5;" width="200" x="7" y="267.58"/><ellipse cx="22" cy="287.4745" fill="#ADD1B2" rx="11" ry="11" style="stroke:#181818;stroke-width:1.0;"/><path d="M24.9688,293.1152 Q24.3906,293.412 23.75,293.5527 Q23.1094,293.7089 22.4063,293.7089 Q19.9063,293.7089 18.5781,292.0683 Q17.2656,290.412 17.2656,287.287 Q17.2656,284.162 18.5781,282.5058 Q19.9063,280.8495 22.4063,280.8495 Q23.1094,280.8495 23.75,281.0058 Q24.4063,281.162 24.9688,281.4589 L24.9688,284.1777 Q24.3438,283.5995 23.75,283.3339 Q23.1563,283.0527 22.5313,283.0527 Q21.1875,283.0527 20.5,284.1308 Q19.8125,285.1933 19.8125,287.287 Q19.8125,289.3808 20.5,290.4589 Q21.1875,291.5214 22.5313,291.5214 Q23.1563,291.5214 23.75,291.2558 Q24.3438,290.9745 24.9688,290.3964 L24.9688,293.1152 Z " fill="#000000"/><text fill="#D9B8FF" font-family="Helvetica" font-size="17" lengthAdjust="spacing" textLength="158" x="41" y="293.3598">microsoft_resource</text></g><!--class phantom_resource--><g id="elem_phantom_resource"><rect codeLine="29" fill="#3D176E" height="39.7891" id="phantom_resource" rx="2.5" ry="2.5" style="stroke:#000D19;stroke-width:0.5;" width="198" x="160" y="167.79"/><ellipse cx="175" cy="187.6845" fill="#ADD1B2" rx="11" ry="11" style="stroke:#181818;stroke-width:1.0;"/><path d="M177.9688,193.3252 Q177.3906,193.622 176.75,193.7627 Q176.1094,193.9189 175.4063,193.9189 Q172.9063,193.9189 171.5781,192.2783 Q170.2656,190.622 170.2656,187.497 Q170.2656,184.372 171.5781,182.7158 Q172.9063,181.0595 175.4063,181.0595 Q176.1094,181.0595 176.75,181.2158 Q177.4063,181.372 177.9688,181.6689 L177.9688,184.3877 Q177.3438,183.8095 176.75,183.5439 Q176.1563,183.2627 175.5313,183.2627 Q174.1875,183.2627 173.5,184.3408 Q172.8125,185.4033 172.8125,187.497 Q172.8125,189.5908 173.5,190.6689 Q174.1875,191.7314 175.5313,191.7314 Q176.1563,191.7314 176.75,191.4658 Q177.3438,191.1845 177.9688,190.6064 L177.9688,193.3252 Z " fill="#000000"/><text fill="#D9B8FF" font-family="Helvetica" font-size="17" lengthAdjust="spacing" textLength="156" x="194" y="193.5698">phantom_resource</text></g><!--class region--><g id="elem_region"><rect codeLine="32" fill="#3D176E" height="39.7891" id="region" rx="2.5" ry="2.5" style="stroke:#000D19;stroke-width:0.5;" width="95" x="198.5" y="367.37"/><ellipse cx="213.5" cy="387.2645" fill="#ADD1B2" rx="11" ry="11" style="stroke:#181818;stroke-width:1.0;"/><path d="M216.4688,392.9052 Q215.8906,393.202 215.25,393.3427 Q214.6094,393.4989 213.9063,393.4989 Q211.4063,393.4989 210.0781,391.8583 Q208.7656,390.202 208.7656,387.077 Q208.7656,383.952 210.0781,382.2958 Q211.4063,380.6395 213.9063,380.6395 Q214.6094,380.6395 215.25,380.7958 Q215.9063,380.952 216.4688,381.2489 L216.4688,383.9677 Q215.8438,383.3895 215.25,383.1239 Q214.6563,382.8427 214.0313,382.8427 Q212.6875,382.8427 212,383.9208 Q211.3125,384.9833 211.3125,387.077 Q211.3125,389.1708 212,390.2489 Q212.6875,391.3114 214.0313,391.3114 Q214.6563,391.3114 215.25,391.0458 Q215.8438,390.7645 216.4688,390.1864 L216.4688,392.9052 Z " fill="#000000"/><text fill="#D9B8FF" font-family="Helvetica" font-size="17" lengthAdjust="spacing" textLength="53" x="232.5" y="393.1498">region</text></g><!--class resource--><g id="elem_resource"><rect codeLine="35" fill="#3D176E" height="39.7891" id="resource" rx="2.5" ry="2.5" style="stroke:#000D19;stroke-width:0.5;" width="113" x="85.5" y="7"/><ellipse cx="100.5" cy="26.8945" fill="#ADD1B2" rx="11" ry="11" style="stroke:#181818;stroke-width:1.0;"/><path d="M103.4688,32.5352 Q102.8906,32.832 102.25,32.9727 Q101.6094,33.1289 100.9063,33.1289 Q98.4063,33.1289 97.0781,31.4883 Q95.7656,29.832 95.7656,26.707 Q95.7656,23.582 97.0781,21.9258 Q98.4063,20.2695 100.9063,20.2695 Q101.6094,20.2695 102.25,20.4258 Q102.9063,20.582 103.4688,20.8789 L103.4688,23.5977 Q102.8438,23.0195 102.25,22.7539 Q101.6563,22.4727 101.0313,22.4727 Q99.6875,22.4727 99,23.5508 Q98.3125,24.6133 98.3125,26.707 Q98.3125,28.8008 99,29.8789 Q99.6875,30.9414 101.0313,30.9414 Q101.6563,30.9414 102.25,30.6758 Q102.8438,30.3945 103.4688,29.8164 L103.4688,32.5352 Z " fill="#000000"/><text fill="#D9B8FF" font-family="Helvetica" font-size="17" lengthAdjust="spacing" textLength="71" x="119.5" y="32.7798">resource</text></g><!--reverse link microsoft_resource to azure_location--><g id="link_microsoft_resource_azure_location"><path codeLine="38" d="M115.6219,325.0093 C126.8719,372.7093 152.08,479.56 163.43,527.66 " fill="none" id="microsoft_resource-backto-azure_location" style="stroke:#FFAF37;stroke-width:2.0;"/><polygon fill="none" points="111.49,307.49,109.7821,326.3866,121.4617,323.632,111.49,307.49" style="stroke:#FFAF37;stroke-width:2.0;"/></g><!--reverse link region to azure_location--><g id="link_region_azure_location"><path codeLine="39" d="M228.6547,423.5765 C213.6647,454.0965 192.45,497.27 177.44,527.83 " fill="none" id="region-backto-azure_location" style="stroke:#FFAF37;stroke-width:2.0;"/><polygon fill="none" points="236.59,407.42,223.2692,420.9314,234.0402,426.2216,236.59,407.42" style="stroke:#FFAF37;stroke-width:2.0;"/></g><!--reverse link resource to microsoft_resource--><g id="link_resource_microsoft_resource"><path codeLine="40" d="M137.0148,64.7472 C130.5548,112.4572 116.14,218.98 109.62,267.08 " fill="none" id="resource-backto-microsoft_resource" style="stroke:#FFAF37;stroke-width:2.0;"/><polygon fill="none" points="139.43,46.91,131.0691,63.9422,142.9606,65.5523,139.43,46.91" style="stroke:#FFAF37;stroke-width:2.0;"/></g><!--reverse link resource to phantom_resource--><g id="link_resource_phantom_resource"><path codeLine="41" d="M166.7881,61.5406 C189.2781,92.0606 222.32,136.9 244.84,167.47 " fill="none" id="resource-backto-phantom_resource" style="stroke:#FFAF37;stroke-width:2.0;"/><polygon fill="none" points="156.11,47.05,161.9579,65.1,171.6183,57.9813,156.11,47.05" style="stroke:#FFAF37;stroke-width:2.0;"/></g><!--reverse link phantom_resource to region--><g id="link_phantom_resource_region"><path codeLine="42" d="M256.5459,225.951 C254.0559,263.721 249.76,329.05 247.28,366.88 " fill="none" id="phantom_resource-backto-region" style="stroke:#FFAF37;stroke-width:2.0;"/><polygon fill="none" points="257.73,207.99,250.5589,225.5563,262.5329,226.3457,257.73,207.99" style="stroke:#FFAF37;stroke-width:2.0;"/></g><!--SRC=[XP1DJm8n48Rl_HLDE9E0H8742v8OlH0ZtadPJjc6RMSpdPM0-jyL5qrf-RZsVVf-J6arI70rRwK3jmGA8gojhnKf9oT4k9bYXIGxnYWp6ARY8tg-2ioK0_a4rJkmBLHAl9MsM7i8GTv4qeCgrYl2nklMdadvy2E1vuYQLYg42JFPPSCGbT7ZvSYOb4nDEmFT7zv1XY5fe0FIw_LqVvmYLwCkxludvdO7iXyVROOCMSqiufUws79FH2MpeN_wsOulIclhL_8sUdjjEv47EdgVbqhZPayRLOKu9Z0G86zhc6QhO3pIPdWIVZu7Ys9_Egbs3S6YmaAnHIy_XFWwACuMX04DBmW2DbH0hDQbyepkf4QmIhoEgHFEzv_TRZSf8mu-PxIZdxbbIgI5HRQWvTfGyGq0]--></g></svg>

<svg xmlns="http://www.w3.org/2000/svg" width="365" height="573" viewBox="0 0 365 573"><rect width="163" height="39.789" x="86.5" y="528.16" fill="#3D176E" rx="2.5" ry="2.5" style="stroke:#000d19;stroke-width:.5"/><circle cx="101.5" cy="548.054" r="11" fill="#ADD1B2" style="stroke:#181818;stroke-width:1"/><path d="M104.469 553.695q-.578.297-1.219.438-.64.156-1.344.156-2.5 0-3.828-1.64-1.312-1.657-1.312-4.782t1.312-4.781q1.328-1.657 3.828-1.657.703 0 1.344.157.656.156 1.219.453v2.719q-.625-.579-1.219-.844-.594-.281-1.219-.281-1.344 0-2.031 1.078-.687 1.062-.687 3.156t.687 3.172q.688 1.062 2.031 1.062.625 0 1.219-.265.594-.282 1.219-.86z"/><text x="120.5" y="553.94" fill="#D9B8FF" font-family="Helvetica" font-size="17" textLength="121">azure_location</text><rect width="200" height="39.789" x="7" y="267.58" fill="#3D176E" rx="2.5" ry="2.5" style="stroke:#000d19;stroke-width:.5"/><circle cx="22" cy="287.474" r="11" fill="#ADD1B2" style="stroke:#181818;stroke-width:1"/><path d="M24.969 293.115q-.578.297-1.219.438-.64.156-1.344.156-2.5 0-3.828-1.64-1.312-1.657-1.312-4.782t1.312-4.781q1.328-1.656 3.828-1.656.703 0 1.344.156.656.156 1.219.453v2.719q-.625-.579-1.219-.844-.594-.281-1.219-.281-1.343 0-2.031 1.078-.687 1.062-.687 3.156t.687 3.172q.688 1.062 2.031 1.062.625 0 1.219-.265.594-.281 1.219-.86z"/><text x="41" y="293.36" fill="#D9B8FF" font-family="Helvetica" font-size="17" textLength="158">microsoft_resource</text><rect width="198" height="39.789" x="160" y="167.79" fill="#3D176E" rx="2.5" ry="2.5" style="stroke:#000d19;stroke-width:.5"/><circle cx="175" cy="187.685" r="11" fill="#ADD1B2" style="stroke:#181818;stroke-width:1"/><path d="M177.969 193.325q-.578.297-1.219.438-.64.156-1.344.156-2.5 0-3.828-1.64-1.312-1.657-1.312-4.782t1.312-4.781q1.328-1.656 3.828-1.656.703 0 1.344.156.656.156 1.219.453v2.719q-.625-.578-1.219-.844-.594-.281-1.219-.281-1.344 0-2.031 1.078-.687 1.062-.687 3.156t.687 3.172q.688 1.062 2.031 1.062.625 0 1.219-.265.594-.281 1.219-.86z"/><text x="194" y="193.57" fill="#D9B8FF" font-family="Helvetica" font-size="17" textLength="156">phantom_resource</text><rect width="95" height="39.789" x="198.5" y="367.37" fill="#3D176E" rx="2.5" ry="2.5" style="stroke:#000d19;stroke-width:.5"/><circle cx="213.5" cy="387.264" r="11" fill="#ADD1B2" style="stroke:#181818;stroke-width:1"/><path d="M216.469 392.905q-.578.297-1.219.438-.64.156-1.344.156-2.5 0-3.828-1.64-1.312-1.657-1.312-4.782t1.312-4.781q1.328-1.656 3.828-1.656.703 0 1.344.156.656.156 1.219.453v2.719q-.625-.579-1.219-.844-.594-.281-1.219-.281-1.344 0-2.031 1.078-.687 1.062-.687 3.156t.687 3.172q.688 1.062 2.031 1.062.625 0 1.219-.265.594-.281 1.219-.86z"/><text x="232.5" y="393.15" fill="#D9B8FF" font-family="Helvetica" font-size="17" textLength="53">region</text><rect width="113" height="39.789" x="85.5" y="7" fill="#3D176E" rx="2.5" ry="2.5" style="stroke:#000d19;stroke-width:.5"/><circle cx="100.5" cy="26.895" r="11" fill="#ADD1B2" style="stroke:#181818;stroke-width:1"/><path d="M103.469 32.535q-.578.297-1.219.438-.64.156-1.344.156-2.5 0-3.828-1.64-1.312-1.657-1.312-4.782t1.312-4.781q1.328-1.656 3.828-1.656.703 0 1.344.156.656.156 1.219.453v2.719q-.625-.578-1.219-.844-.594-.281-1.219-.281-1.344 0-2.031 1.078-.687 1.062-.687 3.156T99 29.879q.688 1.062 2.031 1.062.625 0 1.219-.265.594-.281 1.219-.86z"/><text x="119.5" y="32.78" fill="#D9B8FF" font-family="Helvetica" font-size="17" textLength="71">resource</text><path fill="none" d="M115.622 325.01c11.25 47.7 36.458 154.55 47.808 202.65m-51.94-220.17-1.708 18.897 11.68-2.755zm117.165 116.087c-14.99 30.52-36.205 73.693-51.215 104.253m59.15-120.41-13.32 13.511 10.77 5.29zM137.015 64.747c-6.46 47.71-20.875 154.233-27.395 202.333m29.81-220.17-8.36 17.032 11.89 1.61z" style="stroke:#ffaf37;stroke-width:2"/><g fill="none"><path d="M166.788 61.54c22.49 30.52 55.532 75.36 78.052 105.93" style="stroke:#ffaf37;stroke-width:2"/><path d="m156.11 47.05 5.848 18.05 9.66-7.119z" style="stroke:#ffaf37;stroke-width:2"/></g><g fill="none"><path d="M256.546 225.951c-2.49 37.77-6.786 103.099-9.266 140.929" style="stroke:#ffaf37;stroke-width:2"/><path d="m257.73 207.99-7.171 17.566 11.974.79z" style="stroke:#ffaf37;stroke-width:2"/></g></svg>
